Suru++-Ubuntu/apps/scalable/appimagekit-gravit-designer.svg

<svg width="256" height="256" version="1.1" viewBox="0 0 67.73 67.73" xmlns="http://www.w3.org/2000/svg" xmlns:xlink="http://www.w3.org/1999/xlink">
 <defs>
  <clipPath id="clipPath1082-3-5">
   <path d="M 361.9375,-212 C 507.2348,-212 528,-191.28677 528,-46.125 V 70.125 C 528,215.28618 507.2348,236 361.9375,236 H 214.0625 C 68.7652,236 48,215.28618 48,70.125 V -46.125 C 48,-191.28677 68.7652,-212 214.0625,-212 Z" style="fill:#8c59d9"/>
  </clipPath>
  <filter id="filter4569-2" x="-.01" y="-.01" width="1.023" height="1.025" style="color-interpolation-filters:sRGB">
   <feGaussianBlur stdDeviation="1.16"/>
  </filter>
  <filter id="filter913" x="-.02" y="-.03" width="1.046" height="1.05" style="color-interpolation-filters:sRGB">
   <feGaussianBlur stdDeviation="2.32"/>
  </filter>
  <linearGradient id="linearGradient906" x1="296" x2="296" y1="-212" y2="236" gradientUnits="userSpaceOnUse">
   <stop style="stop-color:#ffffff" offset="0"/>
   <stop style="stop-color:#ffffff;stop-opacity:.09803922" offset=".125"/>
   <stop style="stop-color:#000000;stop-opacity:.09803922" offset=".925"/>
   <stop style="stop-color:#000000;stop-opacity:.49803922" offset="1"/>
  </linearGradient>
 </defs>
 <g transform="translate(0,-229.26666)">
  <path transform="matrix(.26970778 0 0 .26970778 -7.1289177 220.56049)" d="m188.96876 45.999995c72.64865 0 83.03125 10.356615 83.03125 82.937505v58.125c0 72.58059-10.3826 82.9375-83.03125 82.9375h-73.9375c-72.648654 0-83.031254-10.35691-83.031254-82.9375v-58.125c0-72.58089 10.3826-82.937505 83.031254-82.937505z" style="filter:url(#filter913);opacity:.2"/>
  <path transform="matrix(.26970778 0 0 .26970778 -7.1289177 220.56049)" d="m188.96876 43.999995c72.64865 0 83.03125 10.356615 83.03125 82.937505v58.125c0 72.58059-10.3826 82.9375-83.03125 82.9375h-73.9375c-72.648654 0-83.031254-10.35691-83.031254-82.9375v-58.125c0-72.58089 10.3826-82.937505 83.031254-82.937505z" style="filter:url(#filter4569-2);opacity:.1"/>
  <path d="m1.5017313 269.93387v0.53942c0 9.78815 0.699276 15.3792 3.849657 18.52555 3.150387 3.14636 8.7471787 3.84333 18.544517 3.84333h19.94152c9.797339 0 15.394134-0.69697 18.544517-3.84333 3.150384-3.14635 3.849659-8.7374 3.849659-18.52555v-0.53942c0 9.78815-0.699275 15.3792-3.849659 18.52555-3.150383 3.14636-8.747178 3.84334-18.544517 3.84334h-19.94152c-9.797338 0-15.39413-0.69698-18.544517-3.84334-3.150381-3.14635-3.849657-8.7374-3.849657-18.52555z" style="fill:#131313;opacity:.2"/>
  <path transform="matrix(.26458333 0 0 .26458333 0 229.26666)" d="m5.984375 83.658203c0.3301047-0.296279 0.6639214-0.557642 0.9550781-0.826172 4.5413099-4.189077 15.28096-13.707288 18.427735-16.333984 1.543668-1.287685 7.542338-6.564344 13.330078-11.71875 5.787741-5.154369 13.268533-11.745609 16.625-14.648438 3.356443-2.902677 10.317529-9.233473 15.46875-14.0625 3.156812-2.959263 9.740621-8.817849 15.546875-14.02539-5.111301 0.031566-9.737277 0.172547-14.230469 0.341797-25.536299 25.126333-45.319581 44.809005-65.986328 65.648437-0.0683113 1.771597-0.0919553 3.758663-0.1367188 5.625z" style="fill:#c63166"/>
  <path transform="matrix(.26458333 0 0 .26458333 0 229.26666)" d="m192.26172 12.683594c-0.5829-0.038409-1.08335-0.103799-1.67774-0.138672-7.3764-0.432773-15.64111-0.597656-24.89843-0.597656h-64.76563c-4.95781 7.679194-9.642441 14.934139-17.062498 26.439453-10.803768 16.751924-24.211577 37.53533-29.794922 46.1875-5.583334 8.65217-17.922804 27.782801-27.421875 42.509761-7.200635 11.16363-14.547775 22.54378-20.875 32.34571 0.0436507 7.62917 0.1402551 14.91068 0.5097656 21.1875 0.2169106 3.68462 0.5010732 7.1468 0.8652344 10.40039 0.3641612 3.25358 0.8084276 6.29807 1.3457031 9.14648 0.5372756 2.84842 1.1660903 5.50158 1.9023439 7.97071 0.736253 2.46912 1.57992 4.75344 2.541016 6.86914 0.961095 2.11569 2.040152 4.06146 3.251953 5.84961 1.2118 1.78814 2.556553 3.41978 4.044921 4.90625 1.488372 1.48646 3.119891 2.827 4.910157 4.03711 1.790266 1.2101 3.739363 2.29038 5.857422 3.25 2.118058 0.95961 4.405205 1.80015 6.876953 2.53515s5.12718 1.36414 7.978515 1.90039c2.851336 0.53626 5.899429 0.97842 9.15625 1.3418s6.721953 0.6469 10.410157 0.86328c7.376408 0.43277 15.64111 0.59766 24.898437 0.59766h41.533207c14.619-66.36576 30.00056-156.31069 60.41406-227.60157z" style="fill:#c63166"/>
  <path d="m37.759462 222.97766a39.687523 39.687523 0 0 0-2.546359 0.21331 39.687523 39.687523 0 0 1 2.546359-0.21331z" style="fill:#d8d342"/>
  <path transform="matrix(.26458333 0 0 .26458333 0 229.26666)" d="m72.107422 12.384766c-2.112771 0.079584-4.709014 0.043849-6.691406 0.160156-3.688204 0.216386-7.153336 0.499894-10.410157 0.863281s-6.304914 0.805538-9.15625 1.341797c-2.851335 0.536259-5.506767 1.165387-7.978515 1.900391-2.471748 0.735003-4.758895 1.575537-6.876953 2.535156-2.118059 0.959619-4.067156 2.039894-5.857422 3.25s-3.421785 2.550645-4.910157 4.037109c-1.488368 1.48646-2.833121 3.118112-4.044921 4.90625-1.211801 1.788139-2.290858 3.73392-3.251953 5.84961-0.961096 2.11569-1.804763 4.400025-2.541016 6.86914-0.7362536 2.469115-1.3650683 5.12229-1.9023439 7.970703-0.5372755 2.848414-0.9815419 5.892899-1.3457031 9.146485-0.3641612 3.253585-0.6483238 6.715759-0.8652344 10.40039-0.1117252 1.897862-0.0764396 4.388831-0.1542968 6.40625 20.656927-20.826643 40.475448-40.539013 65.986328-65.636718z" style="fill:#b8da6c"/>
  <path d="m1.0911363 256.2082c-0.00178 1e-3 -0.010114 0.0153-0.011724 0.0153a39.687523 39.687523 0 0 0-0.089152 0.58136 39.687523 39.687523 0 0 1 0.10078143-0.59683z" style="fill:#d8d342"/>
  <path transform="matrix(.26458333 0 0 .26458333 0 229.26666)" d="m-8.5957031 183.02734a150.00009 150.00009 0 0 0 7.84375 16.31641v-0.35156a150.00009 150.00009 0 0 1-1.3476563-2.27149 150.00009 150.00009 0 0 1-2.8574218-5.93359 150.00009 150.00009 0 0 1-3.6386719-7.75977z" style="fill:#b8da6c"/>
  <path transform="matrix(.26458333 0 0 .26458333 0 229.26666)" d="m-8.8046875 182.45898c-0.0077416 0.01309-0.0254874 0.03969-0.0332031 0.05274a150.00009 150.00009 0 0 0 0.2421875 0.51562 150.00009 150.00009 0 0 1-0.2089844-0.56836z" style="fill:#b8da6c"/>
  <path transform="matrix(.26458333 0 0 .26458333 0 229.26666)" d="m100.91992 11.947266h-10.605467c-1.478502 0-2.548259 0.086882-3.976562 0.095703-5.806254 5.207533-12.390064 11.066127-15.546875 14.02539-5.151221 4.829141-12.112311 11.15971-15.46875 14.0625-3.356474 2.902829-10.839212 9.493994-16.626954 14.648438-5.787743 5.154331-11.78633 10.430044-13.330078 11.71875-3.146759 2.626809-13.886424 12.144907-18.427734 16.333984-0.2905284 0.267991-0.6238004 0.528616-0.953125 0.824219-0.1021494 4.258127-0.3085938 8.062234-0.3085938 12.833984v59.251956c0 1.37029 0.080302 2.35844 0.0878907 3.68554 6.3272691-9.802 13.67612-21.18177 20.876953-32.3457 9.49906-14.727 21.838545-33.85767 27.421875-42.509764 5.583337-8.652133 18.991154-29.435576 29.794922-46.1875 7.41967-11.504714 12.104672-18.758269 17.062498-26.4375z" style="fill:#b8da6c"/>
  <path transform="matrix(.26458333 0 0 .26458333 0 229.26666)" d="m180.69336 239.92578c3.21716-0.09378 6.96042-0.06637 9.89062-0.23828 3.68821-0.21638 7.15334-0.4999 10.41016-0.86328s6.30491-0.80554 9.15625-1.3418c2.85134-0.53625 5.50677-1.16539 7.97852-1.90039 2.47174-0.735 4.75889-1.57554 6.87695-2.53515 2.11806-0.95962 4.06716-2.0399 5.85742-3.25 1.79027-1.21011 3.42179-2.55065 4.91016-4.03711 1.48837-1.48647 2.83312-3.11811 4.04492-4.90625 1.2118-1.78815 2.29086-3.73392 3.25195-5.84961 0.9611-2.1157 1.80476-4.40002 2.54102-6.86914 0.73625-2.46913 1.36507-5.12229 1.90234-7.97071 0.53728-2.84841 0.98154-5.8929 1.34571-9.14648 0.36416-3.25359 0.64832-6.71577 0.86523-10.40039 0.17375-2.95152 0.14602-6.71984 0.24023-9.96289l-69.27148 69.27148z" style="fill:#778b3c"/>
  <path transform="matrix(.26458333 0 0 .26458333 0 229.26666)" d="m249.96484 170.65625c0.14106-4.85463 0.35938-9.36894 0.35938-14.91406v-59.251956c0-9.248683-0.16579-17.505738-0.59961-24.875-0.21691-3.684631-0.50107-7.146805-0.86523-10.40039-0.36417-3.253586-0.80843-6.298071-1.34571-9.146485-0.53727-2.848413-1.16609-5.501588-1.90234-7.970703-0.73626-2.469115-1.57992-4.75345-2.54102-6.86914-0.96109-2.11569-2.04015-4.061471-3.25195-5.84961-1.2118-1.788138-2.55655-3.41979-4.04492-4.90625-1.48837-1.486464-3.11989-2.827003-4.91016-4.037109-1.79026-1.210106-3.73936-2.290381-5.85742-3.25s-4.40521-1.800153-6.87695-2.535156c-2.47175-0.735004-5.12718-1.364132-7.97852-1.900391s-5.89943-0.97841-9.15625-1.341797-6.72195-0.646895-10.41016-0.863281c-1.47146-0.086331-3.42378-0.053328-4.96679-0.119141-35.12639 77.192305-57.87501 158.39563-63.85157 227.85938h43.91993c5.58067 0 10.12759-0.21704 15.00976-0.35938l69.26953-69.26953z" style="fill:#eddf36"/>
  <path transform="matrix(.13485389 0 0 .13485389 -4.9712557 261.01666)" d="M 361.9375,-212 C 507.2348,-212 528,-191.28677 528,-46.125 V 70.125 C 528,215.28618 507.2348,236 361.9375,236 H 214.0625 C 68.7652,236 48,215.28618 48,70.125 V -46.125 C 48,-191.28677 68.7652,-212 214.0625,-212 Z" clip-path="url(#clipPath1082-3-5)" style="fill:none;opacity:.4;stroke-linecap:round;stroke-linejoin:round;stroke-width:8;stroke:url(#linearGradient906)"/>
  <path d="m33.783956 232.3031v60.41455h9.970757c19.593906 0 22.394174-2.79334 22.394174-22.36889v-15.67677c0-19.57563-2.800268-22.36889-22.394174-22.36889z" style="clip-rule:evenodd;fill-rule:evenodd;fill:#ffffff;image-rendering:optimizeQuality;opacity:.1;shape-rendering:geometricPrecision"/>
  <path d="m23.813194 292.71765c-19.593907 0-22.394175-2.79326-22.394175-22.36889v-7.83838h64.729868v7.83838c0 19.57563-2.800268 22.36889-22.394172 22.36889z" style="clip-rule:evenodd;fill-rule:evenodd;fill:#ffffff;image-rendering:optimizeQuality;opacity:.1;shape-rendering:geometricPrecision"/>
 </g>
</svg>

<svg xmlns="http://www.w3.org/2000/svg" xmlns:xlink="http://www.w3.org/1999/xlink" width="256" height="256" version="1.1" viewBox="0 0 67.73 67.73">
 <defs>
  <linearGradient id="linearGradient1013">
   <stop offset="0" style="stop-color:#ffffff"/>
   <stop style="stop-color:#ffffff;stop-opacity:0.09803922" offset=".125"/>
   <stop style="stop-color:#000000;stop-opacity:0.09803922" offset=".925"/>
   <stop offset="1" style="stop-color:#000000;stop-opacity:0.49803922"/>
  </linearGradient>
  <clipPath id="clipPath1082-3-5" clipPathUnits="userSpaceOnUse">
   <path d="M 361.9375,-212 C 507.2348,-212 528,-191.28677 528,-46.125 V 70.125 C 528,215.28618 507.2348,236 361.9375,236 H 214.0625 C 68.7652,236 48,215.28618 48,70.125 V -46.125 C 48,-191.28677 68.7652,-212 214.0625,-212 Z" style="fill:#8c59d9"/>
  </clipPath>
  <filter style="color-interpolation-filters:sRGB" id="filter4569-2" width="1.023" height="1.025" x="-.01" y="-.01">
   <feGaussianBlur stdDeviation="1.16"/>
  </filter>
  <filter style="color-interpolation-filters:sRGB" id="filter913" width="1.046" height="1.05" x="-.02" y="-.03">
   <feGaussianBlur stdDeviation="2.32"/>
  </filter>
  <linearGradient id="linearGradient906" x1="296" x2="296" y1="-212" y2="236" gradientUnits="userSpaceOnUse" xlink:href="#linearGradient1013"/>
 </defs>
 <g transform="translate(0,-229.26666)">
  <path style="opacity:0.2;filter:url(#filter913)" d="m 188.96876,45.999995 c 72.64865,0 83.03125,10.356615 83.03125,82.937505 v 58.125 c 0,72.58059 -10.3826,82.9375 -83.03125,82.9375 h -73.9375 C 42.382606,270 32.000006,259.64309 32.000006,187.0625 v -58.125 c 0,-72.58089 10.3826,-82.937505 83.031254,-82.937505 z" transform="matrix(0.26970778,0,0,0.26970778,-7.1289177,220.56049)"/>
  <path d="m 188.96876,43.999995 c 72.64865,0 83.03125,10.356615 83.03125,82.937505 v 58.125 c 0,72.58059 -10.3826,82.9375 -83.03125,82.9375 h -73.9375 C 42.382606,268 32.000006,257.64309 32.000006,185.0625 v -58.125 c 0,-72.58089 10.3826,-82.937505 83.031254,-82.937505 z" transform="matrix(0.26970778,0,0,0.26970778,-7.1289177,220.56049)" style="opacity:0.1;filter:url(#filter4569-2)"/>
  <path style="opacity:0.2;fill:#131313" d="m 1.5017313,269.93387 v 0.53942 c 0,9.78815 0.699276,15.3792 3.849657,18.52555 3.150387,3.14636 8.7471787,3.84333 18.5445167,3.84333 h 19.94152 c 9.797339,0 15.394134,-0.69697 18.544517,-3.84333 3.150384,-3.14635 3.849659,-8.7374 3.849659,-18.52555 v -0.53942 c 0,9.78815 -0.699275,15.3792 -3.849659,18.52555 -3.150383,3.14636 -8.747178,3.84334 -18.544517,3.84334 h -19.94152 c -9.797338,0 -15.3941297,-0.69698 -18.5445167,-3.84334 -3.150381,-3.14635 -3.849657,-8.7374 -3.849657,-18.52555 z"/>
  <path style="fill:#c63166" d="M 5.984375 83.658203 C 6.3144797 83.361924 6.6482964 83.100561 6.9394531 82.832031 C 11.480763 78.642954 22.220413 69.124743 25.367188 66.498047 C 26.910856 65.210362 32.909526 59.933703 38.697266 54.779297 C 44.485007 49.624928 51.965799 43.033688 55.322266 40.130859 C 58.678709 37.228182 65.639795 30.897386 70.791016 26.068359 C 73.947828 23.109096 80.531637 17.25051 86.337891 12.042969 C 81.22659 12.074535 76.600614 12.215516 72.107422 12.384766 C 46.571123 37.511099 26.787841 57.193771 6.1210938 78.033203 C 6.0527825 79.8048 6.0291385 81.791866 5.984375 83.658203 z" transform="matrix(0.26458333,0,0,0.26458333,0,229.26666)"/>
  <path style="fill:#c63166" d="M 192.26172 12.683594 C 191.67882 12.645185 191.17837 12.579795 190.58398 12.544922 C 183.20758 12.112149 174.94287 11.947266 165.68555 11.947266 L 100.91992 11.947266 C 95.96211 19.62646 91.277479 26.881405 83.857422 38.386719 C 73.053654 55.138643 59.645845 75.922049 54.0625 84.574219 C 48.479166 93.226389 36.139696 112.35702 26.640625 127.08398 C 19.43999 138.24761 12.09285 149.62776 5.765625 159.42969 C 5.8092757 167.05886 5.9058801 174.34037 6.2753906 180.61719 C 6.4923012 184.30181 6.7764638 187.76399 7.140625 191.01758 C 7.5047862 194.27116 7.9490526 197.31565 8.4863281 200.16406 C 9.0236037 203.01248 9.6524184 205.66564 10.388672 208.13477 C 11.124925 210.60389 11.968592 212.88821 12.929688 215.00391 C 13.890783 217.1196 14.96984 219.06537 16.181641 220.85352 C 17.393441 222.64166 18.738194 224.2733 20.226562 225.75977 C 21.714934 227.24623 23.346453 228.58677 25.136719 229.79688 C 26.926985 231.00698 28.876082 232.08726 30.994141 233.04688 C 33.112199 234.00649 35.399346 234.84703 37.871094 235.58203 C 40.342842 236.31703 42.998274 236.94617 45.849609 237.48242 C 48.700945 238.01868 51.749038 238.46084 55.005859 238.82422 C 58.26268 239.1876 61.727812 239.47112 65.416016 239.6875 C 72.792424 240.12027 81.057126 240.28516 90.314453 240.28516 L 131.84766 240.28516 C 146.46666 173.9194 161.84822 83.974473 192.26172 12.683594 z" transform="matrix(0.26458333,0,0,0.26458333,0,229.26666)"/>
  <path style="fill:#d8d342" d="m 37.759462,222.97766 a 39.687523,39.687523 0 0 0 -2.546359,0.21331 39.687523,39.687523 0 0 1 2.546359,-0.21331 z"/>
  <path style="fill:#b8da6c" d="M 72.107422 12.384766 C 69.994651 12.46435 67.398408 12.428615 65.416016 12.544922 C 61.727812 12.761308 58.26268 13.044816 55.005859 13.408203 C 51.749038 13.77159 48.700945 14.213741 45.849609 14.75 C 42.998274 15.286259 40.342842 15.915387 37.871094 16.650391 C 35.399346 17.385394 33.112199 18.225928 30.994141 19.185547 C 28.876082 20.145166 26.926985 21.225441 25.136719 22.435547 C 23.346453 23.645653 21.714934 24.986192 20.226562 26.472656 C 18.738194 27.959116 17.393441 29.590768 16.181641 31.378906 C 14.96984 33.167045 13.890783 35.112826 12.929688 37.228516 C 11.968592 39.344206 11.124925 41.628541 10.388672 44.097656 C 9.6524184 46.566771 9.0236037 49.219946 8.4863281 52.068359 C 7.9490526 54.916773 7.5047862 57.961258 7.140625 61.214844 C 6.7764638 64.468429 6.4923012 67.930603 6.2753906 71.615234 C 6.1636654 73.513096 6.198951 76.004065 6.1210938 78.021484 C 26.778021 57.194841 46.596542 37.482471 72.107422 12.384766 z" transform="matrix(0.26458333,0,0,0.26458333,0,229.26666)"/>
  <path style="fill:#d8d342" d="m 1.0911363,256.2082 c -0.00178,0.001 -0.010114,0.0153 -0.011724,0.0153 a 39.687523,39.687523 0 0 0 -0.089152,0.58136 39.687523,39.687523 0 0 1 0.10078143,-0.59683 z"/>
  <path style="fill:#b8da6c" d="M -8.5957031 183.02734 A 150.00009 150.00009 0 0 0 -0.75195312 199.34375 L -0.75195312 198.99219 A 150.00009 150.00009 0 0 1 -2.0996094 196.7207 A 150.00009 150.00009 0 0 1 -4.9570312 190.78711 A 150.00009 150.00009 0 0 1 -8.5957031 183.02734 z" transform="matrix(0.26458333,0,0,0.26458333,0,229.26666)"/>
  <path style="fill:#b8da6c" d="M -8.8046875 182.45898 C -8.8124291 182.47207 -8.8301749 182.49867 -8.8378906 182.51172 A 150.00009 150.00009 0 0 0 -8.5957031 183.02734 A 150.00009 150.00009 0 0 1 -8.8046875 182.45898 z" transform="matrix(0.26458333,0,0,0.26458333,0,229.26666)"/>
  <path style="fill:#b8da6c" d="M 100.91992 11.947266 L 90.314453 11.947266 C 88.835951 11.947266 87.766194 12.034148 86.337891 12.042969 C 80.531637 17.250502 73.947827 23.109096 70.791016 26.068359 C 65.639795 30.8975 58.678705 37.228069 55.322266 40.130859 C 51.965792 43.033688 44.483054 49.624853 38.695312 54.779297 C 32.907569 59.933628 26.908982 65.209341 25.365234 66.498047 C 22.218475 69.124856 11.47881 78.642954 6.9375 82.832031 C 6.6469716 83.100022 6.3136996 83.360647 5.984375 83.65625 C 5.8822256 87.914377 5.6757812 91.718484 5.6757812 96.490234 L 5.6757812 155.74219 C 5.6757812 157.11248 5.7560832 158.10063 5.7636719 159.42773 C 12.090941 149.62573 19.439792 138.24596 26.640625 127.08203 C 36.139685 112.35503 48.47917 93.22436 54.0625 84.572266 C 59.645837 75.920133 73.053654 55.13669 83.857422 38.384766 C 91.277092 26.880052 95.962094 19.626497 100.91992 11.947266 z" transform="matrix(0.26458333,0,0,0.26458333,0,229.26666)"/>
  <path style="fill:#778b3c" d="M 180.69336 239.92578 C 183.91052 239.832 187.65378 239.85941 190.58398 239.6875 C 194.27219 239.47112 197.73732 239.1876 200.99414 238.82422 C 204.25096 238.46084 207.29905 238.01868 210.15039 237.48242 C 213.00173 236.94617 215.65716 236.31703 218.12891 235.58203 C 220.60065 234.84703 222.8878 234.00649 225.00586 233.04688 C 227.12392 232.08726 229.07302 231.00698 230.86328 229.79688 C 232.65355 228.58677 234.28507 227.24623 235.77344 225.75977 C 237.26181 224.2733 238.60656 222.64166 239.81836 220.85352 C 241.03016 219.06537 242.10922 217.1196 243.07031 215.00391 C 244.03141 212.88821 244.87507 210.60389 245.61133 208.13477 C 246.34758 205.66564 246.9764 203.01248 247.51367 200.16406 C 248.05095 197.31565 248.49521 194.27116 248.85938 191.01758 C 249.22354 187.76399 249.5077 184.30181 249.72461 180.61719 C 249.89836 177.66567 249.87063 173.89735 249.96484 170.6543 L 180.69336 239.92578 z" transform="matrix(0.26458333,0,0,0.26458333,0,229.26666)"/>
  <path style="fill:#eddf36" d="M 249.96484 170.65625 C 250.1059 165.80162 250.32422 161.28731 250.32422 155.74219 L 250.32422 96.490234 C 250.32422 87.241551 250.15843 78.984496 249.72461 71.615234 C 249.5077 67.930603 249.22354 64.468429 248.85938 61.214844 C 248.49521 57.961258 248.05095 54.916773 247.51367 52.068359 C 246.9764 49.219946 246.34758 46.566771 245.61133 44.097656 C 244.87507 41.628541 244.03141 39.344206 243.07031 37.228516 C 242.10922 35.112826 241.03016 33.167045 239.81836 31.378906 C 238.60656 29.590768 237.26181 27.959116 235.77344 26.472656 C 234.28507 24.986192 232.65355 23.645653 230.86328 22.435547 C 229.07302 21.225441 227.12392 20.145166 225.00586 19.185547 C 222.8878 18.225928 220.60065 17.385394 218.12891 16.650391 C 215.65716 15.915387 213.00173 15.286259 210.15039 14.75 C 207.29905 14.213741 204.25096 13.77159 200.99414 13.408203 C 197.73732 13.044816 194.27219 12.761308 190.58398 12.544922 C 189.11252 12.458591 187.1602 12.491594 185.61719 12.425781 C 150.4908 89.618086 127.74218 170.82141 121.76562 240.28516 L 165.68555 240.28516 C 171.26622 240.28516 175.81314 240.06812 180.69531 239.92578 L 249.96484 170.65625 z" transform="matrix(0.26458333,0,0,0.26458333,0,229.26666)"/>
  <path d="M 361.9375,-212 C 507.2348,-212 528,-191.28677 528,-46.125 V 70.125 C 528,215.28618 507.2348,236 361.9375,236 H 214.0625 C 68.7652,236 48,215.28618 48,70.125 V -46.125 C 48,-191.28677 68.7652,-212 214.0625,-212 Z" clip-path="url(#clipPath1082-3-5)" transform="matrix(0.13485389,0,0,0.13485389,-4.9712557,261.01666)" style="opacity:0.4;fill:none;stroke:url(#linearGradient906);stroke-width:8;stroke-linecap:round;stroke-linejoin:round"/>
  <path style="clip-rule:evenodd;opacity:0.1;fill:#ffffff;fill-rule:evenodd;image-rendering:optimizeQuality;shape-rendering:geometricPrecision;text-rendering:geometricPrecision" d="m 33.783956,232.3031 v 60.41455 h 9.970757 c 19.593906,0 22.394174,-2.79334 22.394174,-22.36889 v -15.67677 c 0,-19.57563 -2.800268,-22.36889 -22.394174,-22.36889 z"/>
  <path style="clip-rule:evenodd;opacity:0.1;fill:#ffffff;fill-rule:evenodd;image-rendering:optimizeQuality;shape-rendering:geometricPrecision;text-rendering:geometricPrecision" d="m 23.813194,292.71765 c -19.593907,0 -22.3941753,-2.79326 -22.3941753,-22.36889 v -7.83838 H 66.148887 v 7.83838 c 0,19.57563 -2.800268,22.36889 -22.394172,22.36889 z"/>
 </g>
</svg>
